X: 32
T:Bonny Green, Headington
M:6/8
L:1/8
A:Headington
P:A(AB)4
K:G
P:A
G|:d>cB AGF|G>AB cde|d>ed dcB|1B3 A2d:|2A3 G2||
P:B
d>cB AGF|G3   A3 |d>cB AGF|G3   A3|
d>cB AGF|G>AB cde|d>ed dcB|A3  G2 ||
